apps/scalable/arista.svg

<svg xmlns="http://www.w3.org/2000/svg" style="isolation:isolate" width="256" height="256"><defs><filter id="a" width="270.648" height="254.338" x="-7.32" y="2.95" filterUnits="userSpaceOnUse"><feGaussianBlur xmlns="http://www.w3.org/2000/svg" in="SourceGraphic" stdDeviation="4.294"/><feOffset xmlns="http://www.w3.org/2000/svg" dy="4" result="pf_100_offsetBlur"/><feFlood xmlns="http://www.w3.org/2000/svg" flood-opacity=".4"/><feComposite xmlns="http://www.w3.org/2000/svg" in2="pf_100_offsetBlur" operator="in" result="pf_100_dropShadow"/><feBlend xmlns="http://www.w3.org/2000/svg" in="SourceGraphic" in2="pf_100_dropShadow"/></filter></defs><path fill="#666" d="M165.685 11.947c74.055 0 84.639 10.557 84.639 84.544v59.251c0 73.986-10.584 84.543-84.639 84.543h-75.37c-74.055 0-84.639-10.557-84.639-84.543V96.491c0-73.987 10.584-84.544 84.639-84.544h75.37z" filter="url(#a)"/><path fill="#BC1938" d="M83.375 181.75L88 77.75l-1.375-3.375-5 102.188 1.75 5.187z"/><path fill="#1463A5" d="M172.563 181.875l-4.625-104 1.375-3.375 5 102.188-1.75 5.187z"/><path fill="#6DC7F1" d="M176.813 167.625l39.535 8.789-1.641 5.47h-42.123l4.229-14.259z"/><path fill="#A6D74F" d="M108.58 176.414h38.84v5.47h-38.84v-5.47z"/><path fill="#F76363" d="M81.5 176.375l-41.301.039 1.094 5.47h42.123l-1.916-5.509z"/><path fill="#1A7FD4" d="M169.302 74.116h32.823l14.223 102.298h-42.123l-4.923-102.298z"/><path fill="#46A926" d="M111.862 74.116h32.276l3.282 102.298h-38.84l3.282-102.298z"/><path fill="#DA1636" d="M86.698 74.116H53.875L39.652 176.414h42.123l4.923-102.298z"/><g opacity=".05"><path fill="#FFF" d="M8.476 55.74C6.729 66.667 6.158 80.255 6.158 97.205v59.251c0 73.986 10.584 84.544 84.64 84.544h75.369c55.135 0 75.078-5.874 81.675-39.397L8.476 55.74z"/></g><g opacity=".4"><linearGradient id="b" x1=".517" x2=".517" y2="1"><stop offset="0%" stop-color="#fff"/><stop offset="12.5%" stop-opacity=".098" stop-color="#fff"/><stop offset="92.5%" stop-opacity=".098"/><stop offset="100%" stop-opacity=".498"/></linearGradient><path fill="none" stroke="url(#b)" stroke-linecap="round" stroke-linejoin="round" stroke-width="4.077" d="M165.685 11.947c74.055 0 84.639 10.557 84.639 84.544v59.251c0 73.986-10.584 84.543-84.639 84.543h-75.37c-74.055 0-84.639-10.557-84.639-84.543V96.491c0-73.987 10.584-84.544 84.639-84.544h75.37z" vector-effect="non-scaling-stroke"/></g></svg>

<svg xmlns="http://www.w3.org/2000/svg" style="isolation:isolate" width="256" height="256" viewBox="0 0 256 256">
 <defs>
  <filter id="yrPyrBuvtZ4Zln5b61OP5WIJFnCj7utt" width="270.648" height="254.338" x="-7.32" y="2.95" filterUnits="userSpaceOnUse">
   <feGaussianBlur xmlns="http://www.w3.org/2000/svg" in="SourceGraphic" stdDeviation="4.294"/>
   <feOffset xmlns="http://www.w3.org/2000/svg" dx="0" dy="4" result="pf_100_offsetBlur"/>
   <feFlood xmlns="http://www.w3.org/2000/svg" flood-opacity=".4"/>
   <feComposite xmlns="http://www.w3.org/2000/svg" in2="pf_100_offsetBlur" operator="in" result="pf_100_dropShadow"/>
   <feBlend xmlns="http://www.w3.org/2000/svg" in="SourceGraphic" in2="pf_100_dropShadow" mode="normal"/>
  </filter>
 </defs>
 <g filter="url(#yrPyrBuvtZ4Zln5b61OP5WIJFnCj7utt)">
  <path fill="#666666" d="M 165.685 11.947 C 239.74 11.947 250.324 22.504 250.324 96.491 L 250.324 155.742 C 250.324 229.728 239.74 240.285 165.685 240.285 L 90.315 240.285 C 16.26 240.285 5.676 229.728 5.676 155.742 L 5.676 96.491 C 5.676 22.504 16.26 11.947 90.315 11.947 L 165.685 11.947 Z"/>
 </g>
 <g>
  <path fill="#BC1938" d="M 83.375 181.75 L 88 77.75 L 86.625 74.375 L 81.625 176.563 L 83.375 181.75 Z"/>
  <path fill="#1463A5" d="M 172.563 181.875 L 167.938 77.875 L 169.313 74.5 L 174.313 176.688 L 172.563 181.875 Z"/>
  <path fill="#6DC7F1" d="M 176.813 167.625 L 216.348 176.414 L 214.707 181.884 L 172.584 181.884 L 176.813 167.625 Z"/>
  <path fill="#A6D74F" d="M 108.58 176.414 L 147.42 176.414 L 147.42 181.884 L 108.58 181.884 L 108.58 176.414 Z"/>
  <path fill="#F76363" d="M 81.5 176.375 L 40.199 176.414 L 41.293 181.884 L 83.416 181.884 L 81.5 176.375 Z"/>
  <path fill="#1A7FD4" d="M 169.302 74.116 L 202.125 74.116 L 216.348 176.414 L 174.225 176.414 L 169.302 74.116 Z"/>
  <path fill="#46A926" d="M 111.862 74.116 L 144.138 74.116 L 147.42 176.414 L 108.58 176.414 L 111.862 74.116 Z"/>
  <path fill="#DA1636" d="M 86.698 74.116 L 53.875 74.116 L 39.652 176.414 L 81.775 176.414 L 86.698 74.116 Z"/>
 </g>
 <g opacity=".05">
  <path fill="#FFFFFF" d="M 8.476 55.74 C 6.729 66.667 6.158 80.255 6.158 97.205 L 6.158 156.456 C 6.158 230.442 16.742 241 90.798 241 L 166.167 241 C 221.302 241 241.245 235.126 247.842 201.603 L 8.476 55.74 Z"/>
 </g>
 <g opacity=".4">
  <linearGradient id="_lgradient_266" x1=".517" x2=".517" y1="0" y2="1">
   <stop offset="0%" style="stop-color:rgb(255,255,255)"/>
   <stop offset="12.5%" stop-opacity=".098" style="stop-color:rgb(255,255,255)"/>
   <stop offset="92.5%" stop-opacity=".098" style="stop-color:rgb(0,0,0)"/>
   <stop offset="100%" stop-opacity=".498" style="stop-color:rgb(0,0,0)"/>
  </linearGradient>
  <path fill="none" stroke="url(#_lgradient_266)" stroke-linecap="round" stroke-linejoin="round" stroke-width="4.077" d="M 165.685 11.947 C 239.74 11.947 250.324 22.504 250.324 96.491 L 250.324 155.742 C 250.324 229.728 239.74 240.285 165.685 240.285 L 90.315 240.285 C 16.26 240.285 5.676 229.728 5.676 155.742 L 5.676 96.491 C 5.676 22.504 16.26 11.947 90.315 11.947 L 165.685 11.947 Z" vector-effect="non-scaling-stroke"/>
 </g>
</svg>
